!!!COM: Palestrina, Giovanni Perluigi da
!!!OPR: Missa Inviolata
!!!OMD: Credo
!!!OTL: Et iterum
**kern	**kern	**kern	**kern
*Ibass	*Itenor	*Icalto	*Icant
!Bassus	!Tenor	!Altus	!Cantus
*clefF4	*clefGv2	*clefG2	*clefG2
*k[b-]	*k[b-]	*k[b-]	*k[b-]
*F:ion	*F:ion	*F:ion	*F:ion
*M4/2	*M4/2	*M4/2	*M4/2
=144	=144	=144	=144
1r	1c	0r	0r
1F	2c	.	.
.	2c	.	.
=145	=145	=145	=145
2F	2A	0r	0r
2F	2F	.	.
2E	2.G	.	.
2C	.	.	.
.	4A	.	.
=146	=146	=146	=146
1D	2B-	1d	0r
.	1A	.	.
1BB-	.	2d	.
.	2G	2d	.
=147	=147	=147	=147
2AA	0A	1.c	1a
2F	.	.	.
2F	.	.	2a
2F	.	2A	2a
=148	=148	=148	=148
2E	0r	1c	2g
2C	.	.	2e
1D	.	2B-	1f
.	.	[2A	.
=149	=149	=149	=149
1BB-	1r	2A]	1d
.	.	2G	.
1AA	2r	1A	1c
.	2A	.	.
=150	=150	=150	=150
1D	2A	1F	1r
.	2B	.	.
2.C	[1c	1G	1e
4BB-	.	.	.
=151	=151	=151	=151
1AA	2c]	1A	2e
.	4B-	.	2f#
.	4A	.	.
1GG	2B-	[1d	[1g
.	2B-	.	.
=152	=152	=152	=152
1D	1A	2d]	2g]
.	.	2d	4f
.	.	.	4e
1D	2r	[1A	2f
.	[2d	.	2f
=153	=153	=153	=153
2AA	2d]	1A]	1e
1A	2c	.	.
.	1f	2r	1r
2D	.	[2d	.
=154	=154	=154	=154
1A	1e	2d]	1r
.	.	2c	.
1D	1d	1f	2r
.	.	.	[2a
=155	=155	=155	=155
0r	2c	2e	2a]
.	2B-	2d	2g
.	1A	2e	1cc
.	.	2c	.
=156	=156	=156	=156
0r	2G	4d	2b-
.	.	4e	.
.	2F	4f	2a
.	.	4d	.
.	2c	2e	2g
.	2d	[2d	2f
=157	=157	=157	=157
1r	1A	2d]	1e
.	.	2c#	.
2r	[1d	2d	2d
[2G	.	[2B-	[2b-
=158	=158	=158	=158
2G]	1d]	2B-]	2b-]
2G	.	2B-	2b-
2F	1r	2c	2a
2E	.	2c	2g
=159	=159	=159	=159
2D	2r	2d	4f
.	.	.	4e
1D	1F	1f	4d
.	.	.	4c#
.	.	.	1d
2D	2F	2f	.
=160	=160	=160	=160
2C	2G	2e	1r
2BB-	2G	2d	.
[1AA	1A	1c	2r
.	.	.	[2a
=161	=161	=161	=161
1AA]	1.c	2r	2a]
.	.	1e	2a
1r	.	.	2a
.	2c	2e	[2g
=162	=162	=162	=162
1r	2B-	2d	2g]
.	2A	2c	2.f
2r	1G	2d	.
.	.	.	8e
.	.	.	8d
2C	.	4c	2e
.	.	4B-	.
=163	=163	=163	=163
2D	1F	1A	2f
1F	.	.	2a
.	1C	2r	1g
2E	.	2c	.
=164	=164	=164	=164
2D	2r	2d	1f
2D	2F	2f	.
2C	2G	2e	1r
4BB-	[2B-	[2d	.
4C	.	.	.
=165	=165	=165	=165
4D	2B-]	2d]	1r
4E	.	.	.
1F	2A	2c	.
.	2G	2d	2r
2E	2G	[2c	2c
=166	=166	=166	=166
1D	2.F	2c]	2d
.	.	2B	1f
.	4G	.	.
2C	4A	1c	.
.	4B-	.	.
2C	2c	.	2e
=167	=167	=167	=167
2D	2B-	1F	1f
1F	2A	.	.
.	1G	2r	2g
2E	.	2G	2g
=168	=168	=168	=168
1F	1F	2A	2c
.	.	1c	2f
2G	1r	.	2e
2G	.	2B-	4d
.	.	.	4e
=169	=169	=169	=169
1F	2r	4A	4f
.	.	4B-	4g
.	1A	4c	4a
.	.	4d	4b-
1r	.	2e	2cc
.	2A	[2f	2a
=170	=170	=170	=170
1r	2B-	2f]	1g
.	2c	2e	.
2r	[1d	1f	2r
[2D	.	.	[2f
=171	=171	=171	=171
2D]	1d]	1r	2f]
2D	.	.	2f
2E	1c	2r	2g
2F	.	2f	2a
=172	=172	=172	=172
1G	1B-	2d	1b-
.	.	2e	.
1F	2c	2.f	1a
.	2A	.	.
.	.	4e	.
=173	=173	=173	=173
0r	2B-	2d	2r
.	2c	2A	2a
.	1d	1B-	2f
.	.	.	2g
=174	=174	=174	=174
1F	1c	2A	2.a
.	.	2A	.
.	.	.	4g
2D	1r	2B-	2f
2E	.	2G	2e
=175	=175	=175	=175
2.F	2r	2A	2d
.	1A	2A	2c
4E	.	.	.
1D	.	1F	1f
.	2B	.	.
=176	=176	=176	=176
1C	2.c	1G	2r
.	.	.	1e
.	4c	.	.
1r	2c	1r	.
.	2d	.	2f
=177	=177	=177	=177
1r	2B-	0r	2.g
.	2.c	.	.
.	.	.	4g
2r	.	.	2g
.	4B-	.	.
2F	4A	.	2a
.	4G	.	.
=178	=178	=178	=178
2F	2A	0r	2f
2E-	2.B-	.	2.g
1D	.	.	.
.	4A	.	4f
.	2F	.	[2f
=179	=179	=179	=179
1C	1G	2r	2f]
.	.	2c	2e
2AA	[1F	2c	1f
4BB-	.	2B-	.
4C	.	.	.
=180	=180	=180	=180
4D	1F]	1A	1r
4E	.	.	.
1F	.	.	.
.	1C	1G	2r
4E	.	.	2g
4D	.	.	.
=181	=181	=181	=181
2E	0r	2G	2g
2F	.	4A	2f
.	.	4G	.
4C	.	4A	2e
4D	.	4B	.
4E	.	[2c	2e
4F	.	.	.
=182	=182	=182	=182
1G	1r	2c]	1d
.	.	2B	.
1C	2r	1c	2e
.	2c	.	4c
.	.	.	4d
=183	=183	=183	=183
0r	2c	1r	4e
.	.	.	4f
.	2B-	.	2g
.	2A	2r	4f
.	.	.	4e
.	2A	2c	4e
.	.	.	8d
.	.	.	8c
=184	=184	=184	=184
1r	1G	2c	2d
.	.	2B	2d
2r	2A	[1c	1c
2F	4F	.	.
.	4G	.	.
=185	=185	=185	=185
2F	4A	1c]	0r
.	4B-	.	.
2E	1c	.	.
2F	.	1d	.
2G	2B	.	.
=186	=186	=186	=186
2A	1c	2f	1r
2A	.	2e	.
1B-	1r	1d	2r
.	.	.	2f
=187	=187	=187	=187
1A	2r	2.c	2f
.	2c	.	2e
.	.	4B-	.
1r	2c	2A	2f
.	2B	2G	2g
=188	=188	=188	=188
2r	2c	2F	2a
2D	2d	2f	2a
2G	1B-	2d	1b-
2G	.	2e	.
=189	=189	=189	=189
2.F	1c	1.f	1a
4E	.	.	.
[1D	1d	.	2r
.	.	4e	[2a
.	.	4d	.
=190	=190	=190	=190
1D]	2A	1f	2a]
.	1A	.	2a
1AA	.	[1e	2.cc
.	2A	.	.
.	.	.	4b-
=191	=191	=191	=191
0r	2.c	1e]	2a
.	.	.	2g
.	4B-	.	.
.	2A	1r	2f
.	2G	.	2e
=192	=192	=192	=192
0r	2F	1r	2a
.	2E	.	2.g
.	1A	1c	.
.	.	.	4f
.	.	.	[2f
=193	=193	=193	=193
1r	0G	1d	2f]
.	.	.	4e
.	.	.	4d
1C	.	1c	1e
=194	=194	=194	=194
1D	2r	1A	1f
.	1F	.	.
1C	.	2r	1g
.	2E	[2c	.
=195	=195	=195	=195
1AA	2F	2c]	1a
.	4E	2c	.
.	4D	.	.
[1C	2.E	2c	1g
.	.	2c	.
.	4F	.	.
=196	=196	=196	=196
2C]	1G	2.c	2e
2C	.	.	1g
.	.	4d	.
1C	2C	[1e	.
.	[2c	.	2g
=197	=197	=197	=197
1C	2c]	1e]	2g
.	2c	.	2g
1F	2c	[1f	1a
.	2c	.	.
=198	=198	=198	=198
1BB-	1d	1f]	2f
.	.	.	1b-
1F	2c	2r	.
.	2f	[2c	[2a
=199	=199	=199	=199
1G	2e	2c]	2a]
.	2.d	2B	1g
1A	.	1c	.
.	4c	.	.
.	[2c	.	2f#
=200	=200	=200	=200
0G	2c]	0d	0g
.	4B	.	.
.	4A	.	.
.	1B	.	.
=201	=201	=201	=201
0C	1c	1e	2r
.	.	.	2g
.	1r	2r	1cc
.	.	2c	.
=202	=202	=202	=202
0r	1F	1f	2a
.	.	.	2f
.	1c	2e	2g
.	.	2c	2e
=203	=203	=203	=203
0r	2B-	2d	2f
.	2G	2B-	2g
.	1A	2.c	2e
.	.	.	[2f
.	.	4A	.
=204	=204	=204	=204
2r	1G	2B-	2f]
2C	.	2c	2e
1F	2A	1A	2c
.	2F	.	[2d
=205	=205	=205	=205
2E	2G	2r	4d]
.	.	.	4c
2C	1A	2c	1c
1D	.	1f	.
.	4G	.	2B
.	4F	.	.
=206	=206	=206	=206
1C	2G	2e	1c
.	2E	2c	.
2BB-	2F	2d	1r
2GG	[2G	2B-	.
=207	=207	=207	=207
2AA	4G]	2c	2r
.	4F	.	.
2BB-	1F	2d	2f
1GG	.	1B-	1b-
.	2E	.	.
=208	=208	=208	=208
1FF	2F	2r	2a
.	2F	1f	2f
2r	1c	.	1g
2C	.	2e	.
=209	=209	=209	=209
1F	2A	2c	1a
.	2F	2.d	.
2E	1G	.	2g
.	.	4c	.
2C	.	[2c	2e
=210	=210	=210	=210
1D	1F	2c]	1f
.	.	2B	.
1C	2G	1c	1e
.	2A	.	.
=211	=211	=211	=211
2BB-	1B-	1d	2d
2GG	.	.	2.g
2AA	1A	[1c	.
.	.	.	4f
2FF	.	.	[2f
=212	=212	=212	=212
0C	0G	0c]	2f]
.	.	.	4e
.	.	.	4d
.	.	.	1e
=213	=213	=213	=213
[0FF	[0F	[0A	[0f
=214	=214	=214	=214
0FF]	0F]	0A]	0f]
==	==	==	==
*-	*-	*-	*-
!!!CDT: 1525/^1526/-1594/2/2
!!!OCY: Italia
!!!AGN: Mass (Parody)
!!!AST: renaissance, vocal
!!!ASW: Motet 1532 (Courtois)
!!!PWK: Masses, Book 2
!!!RNB: Cadence finals: C
!!!YOR: Le Opere Complete, v. 4, p. 26
!!!YOO: Rome, Italy: Fratelli Scalera
!!!END: 1992//
!!!EED: John Miller
!!!YEC: Copyright 2000, John Miller
!!!YEN: United States of America
!!!YEM: Rights to all derivative electronic formats reserved.
!!!YEM: Refer to licensing agreement for further details.
!!!YEM: This file must be accompanied by the licensing agreement.
!!!YEM: A copy of the licensing agreement may be found at http://www.music-cog.ohio-state.edu/HumdrumDatabases/Palestrina/license.txt
!!!EMD: converted to Humdrum by Bret Aarden
